src/images/title_icon.svg

<svg width="106" height="98" viewBox="0 0 106 98" fill="none" xmlns="http://www.w3.org/2000/svg">
<path d="M53.1246 11.3494C59.1893 4.03862 66.1677 0.38324 74.06 0.38324C82.0354 0.38324 89.18 3.00016 95.4939 8.23401C98.5677 10.7263 101.018 14.0909 102.846 18.3279C104.757 22.5648 105.712 26.8432 105.712 31.1632C105.712 41.7971 102.597 51.3509 96.3662 59.8248C92.7108 64.7263 88.7646 69.0879 84.5277 72.9094C80.3739 76.6479 77.7985 78.8909 76.8016 79.6386C75.8877 80.3033 74.1016 81.7156 71.4431 83.8756C65.3785 89.1094 61.4739 92.391 59.7293 93.7202L54.7446 97.5833H51.38L46.1462 93.7202L34.5569 83.8756L28.3262 78.8909L21.8462 73.2832C17.4431 69.2956 13.7462 65.3079 10.7554 61.3202C7.84772 57.3325 5.81233 54.0094 4.64926 51.3509C1.74157 44.8709 0.28772 38.5986 0.28772 32.534C0.28772 22.3986 3.69387 14.2986 10.5062 8.23401C16.4877 3.00016 24.0477 0.38324 33.1862 0.38324C40.9954 0.38324 47.6416 4.03862 53.1246 11.3494ZM93.8739 19.2002C91.5477 15.4617 88.64 12.7617 85.1508 11.1002C81.7446 9.43862 77.84 8.60785 73.4369 8.60785C69.1169 8.60785 64.9631 10.2279 60.9754 13.4679C57.0708 16.7079 54.4123 20.3632 53 24.434C51.6708 20.3632 49.0539 16.7079 45.1493 13.4679C41.3277 10.2279 37.1739 8.60785 32.6877 8.60785C28.2846 8.60785 24.3385 9.43862 20.8493 11.1002C17.36 12.7617 14.4108 15.4617 12.0016 19.2002C9.67541 22.8556 8.51233 27.1756 8.51233 32.1602C8.51233 37.0617 9.42618 41.7556 11.2539 46.2417C13.1646 50.6448 15.5323 54.5079 18.3569 57.8309C24.3385 64.7263 31.1093 70.9986 38.6693 76.6479C46.2293 82.2971 50.84 86.534 52.5016 89.3586H53.4985C55.16 86.534 59.8539 82.2556 67.58 76.5233C75.3062 70.7079 81.9939 64.4771 87.6431 57.8309C90.4677 54.5079 92.7939 50.6448 94.6216 46.2417C96.5323 41.7556 97.4877 37.0617 97.4877 32.1602C97.4877 27.1756 96.2831 22.8556 93.8739 19.2002Z" fill="white"/>
</svg>

<svg width="106" height="98"  viewBox="0 0 106 98" fill="none" xmlns="http://www.w3.org/2000/svg"><path d="M53.125 11.35C59.189 4.038 66.168.382 74.06.382 82.035.383 89.18 3 95.494 8.234c3.074 2.492 5.524 5.857 7.352 10.094 1.911 4.237 2.866 8.515 2.866 12.835 0 10.634-3.115 20.188-9.346 28.662-3.655 4.901-7.601 9.263-11.838 13.084-4.154 3.739-6.73 5.982-7.726 6.73-.914.664-2.7 2.077-5.359 4.237-6.064 5.233-9.97 8.515-11.714 9.844l-4.984 3.863H51.38l-5.234-3.863-11.59-9.844-6.23-4.985-6.48-5.608c-4.403-3.987-8.1-7.975-11.09-11.963-2.908-3.987-4.944-7.31-6.107-9.97C1.742 44.87.288 38.6.288 32.535c0-10.135 3.406-18.235 10.218-24.3C16.488 3 24.048.384 33.186.384c7.81 0 14.456 3.655 19.939 10.965zm40.749 7.85c-2.326-3.738-5.234-6.438-8.723-8.1-3.406-1.661-7.311-2.492-11.714-2.492-4.32 0-8.474 1.62-12.462 4.86-3.904 3.24-6.563 6.895-7.975 10.966-1.33-4.07-3.946-7.726-7.85-10.966-3.822-3.24-7.976-4.86-12.462-4.86-4.403 0-8.35.83-11.839 2.492-3.489 1.662-6.438 4.362-8.847 8.1-2.327 3.656-3.49 7.976-3.49 12.96 0 4.902.914 9.596 2.742 14.082 1.91 4.403 4.278 8.266 7.103 11.589 5.982 6.895 12.752 13.168 20.312 18.817 7.56 5.65 12.171 9.886 13.833 12.71h.996c1.662-2.824 6.356-7.102 14.082-12.835 7.726-5.815 14.414-12.046 20.063-18.692 2.825-3.323 5.15-7.186 6.979-11.59a35.573 35.573 0 002.866-14.08c0-4.985-1.205-9.305-3.614-12.96z" fill="#fff"/></svg>
